!!!COM: Palestrina, Giovanni Perluigi da
!!!OPR: Missa Octavi toni
!!!OMD: Sanctus
!!!OTL: First Section
**kern	**kern	**kern	**kern	**kern	**kern
*Ibass	*Itenor	*Itenor	*Icalto	*Icant	*Icant
!Bassus	!Tenor 2	!Tenor 1	!Altus	!Cantus 2	!Cantus 1
*clefF4	*clefGv2	*clefGv2	*clefG2	*clefG2	*clefG2
*k[]	*k[]	*k[]	*k[]	*k[]	*k[]
*G:mix	*G:mix	*G:mix	*G:mix	*G:mix	*G:mix
*M4/2	*M4/2	*M4/2	*M4/2	*M4/2	*M4/2
=1	=1	=1	=1	=1	=1
0r	0d	1r	0r	0r	0r
.	.	[1G	.	.	.
=2	=2	=2	=2	=2	=2
0r	1B	1G]	0r	0r	0g
.	2.e	1E	.	.	.
.	4d	.	.	.	.
=3	=3	=3	=3	=3	=3
0r	4c	2.A	0r	0r	1e
.	4B	.	.	.	.
.	2.A	.	.	.	.
.	.	4G	.	.	.
.	.	4F	.	.	1f
.	4G	4E	.	.	.
.	4A	2D	.	.	.
.	4B	.	.	.	.
=4	=4	=4	=4	=4	=4
1r	1c	2C	0r	0r	1e
.	.	1c	.	.	.
[1G	2G	.	.	.	[1d
.	[2d	4B	.	.	.
.	.	4A	.	.	.
=5	=5	=5	=5	=5	=5
1G]	2d]	4B	0g	0r	1d]
.	.	4c	.	.	.
.	1B	4d	.	.	.
.	.	8c	.	.	.
.	.	8d	.	.	.
1E	.	2e	.	.	1r
.	[2e	2B	.	.	.
=6	=6	=6	=6	=6	=6
2.A	4e]	1.c	1e	0r	0r
.	4d	.	.	.	.
.	4c	.	.	.	.
4G	4B	.	.	.	.
4F	2.A	.	1f	.	.
4E	.	.	.	.	.
2D	.	2d	.	.	.
.	4B	.	.	.	.
=7	=7	=7	=7	=7	=7
1C	1c	2G	1e	0g	1r
.	.	1c	.	.	.
1GG	2d	.	1d	.	2r
.	[2G	2B	.	.	[2g
=8	=8	=8	=8	=8	=8
1C	2G]	2c	1r	0e	2g]
.	1E	2G	.	.	1cc
1AA	.	1A	1c	.	.
.	[2A	.	.	.	[2a
=9	=9	=9	=9	=9	=9
2.A	4A]	0D	1A	0f	2a]
.	4G	.	.	.	.
.	4F	.	.	.	2.dd
4G	4E	.	.	.	.
4F	4D	.	2.d	.	.
4E	4E	.	.	.	4cc
2D	2F	.	.	.	4b
.	.	.	4c	.	4a
=10	=10	=10	=10	=10	=10
2E	2G	0r	2B	0e	2g
2AA	2E	.	1c	.	2.a
1C	1E	.	.	.	.
.	.	.	.	.	4g
.	.	.	2B	.	[2g
=11	=11	=11	=11	=11	=11
1D	1r	2r	1A	0d	2g]
.	.	2.d	.	.	2f#
2GG	2.G	.	1B	.	1g
.	.	4c	.	.	.
[2G	.	4B	.	.	.
.	4F	4A	.	.	.
=12	=12	=12	=12	=12	=12
4G]	4E	2B	0e	0g	0r
4F	4D	.	.	.	.
4E	2C	2.c	.	.	.
4D	.	.	.	.	.
1C	2.E	.	.	.	.
.	.	4G	.	.	.
.	.	[2c	.	.	.
.	4F	.	.	.	.
=13	=13	=13	=13	=13	=13
1GG	1G	2c]	1d	0g	1r
.	.	2B	.	.	.
1C	2.E	1e	1c	.	2r
.	.	.	.	.	[2cc
.	4F	.	.	.	.
=14	=14	=14	=14	=14	=14
1GG	0G	[0d	2r	0r	2cc]
.	.	.	1g	.	2b
2r	.	.	.	.	2g
[2G	.	.	2g	.	[2b-
=15	=15	=15	=15	=15	=15
2G]	2r	1d]	2d	0r	2b-]
2F	1d	.	1f	.	4a
.	.	.	.	.	4g
2D	.	1r	.	.	1a
[2F	2c	.	2f	.	.
=16	=16	=16	=16	=16	=16
2F]	2A	0r	2c	0r	2a
2E	1c	.	2e	.	2g
2F	.	.	1d	.	2f
2G	2B	.	.	.	2d
=17	=17	=17	=17	=17	=17
2.C	2A	2r	1c	0r	2.e
.	2G	2c	.	.	.
4D	.	.	.	.	4f
1E	4G	2B	2r	.	1g
.	4A	.	.	.	.
.	4B	2G	[2g	.	.
.	4c	.	.	.	.
=18	=18	=18	=18	=18	=18
0D	1d	2B-	2g]	0r	2r
.	.	2A	2f	.	4d
.	.	.	.	.	4e
.	2r	2.F	2d	.	4f
.	.	.	.	.	4g
.	[2d	.	[2f	.	[2a
.	.	4G	.	.	.
=19	=19	=19	=19	=19	=19
0AA	2d]	1.A	2f]	0r	4a]
.	.	.	.	.	4g
.	2c	.	2e	.	4a
.	.	.	.	.	4b
.	2A	.	2c	.	2cc
.	[2c	2E	2e	.	2cc
=20	=20	=20	=20	=20	=20
0r	2c]	1G	2.d	0g	1dd
.	2B	.	.	.	.
.	.	.	8c	.	.
.	.	.	8d	.	.
.	2c	1r	2e	.	2r
.	2B	.	2d	.	[2dd
=21	=21	=21	=21	=21	=21
0r	0A	2r	2e	0a	2dd]
.	.	2A	2e	.	2cc
.	.	2F	1f	.	2a
.	.	2F	.	.	[2cc
=22	=22	=22	=22	=22	=22
0r	1r	1G	1d	0g	2cc]
.	.	.	.	.	2b
.	2r	1E	1e	.	2cc
.	2e	.	.	.	2b
=23	=23	=23	=23	=23	=23
1r	2c	2.F	1A	0f	0a
.	2c	.	.	.	.
.	.	4E	.	.	.
2r	1d	1D	1A	.	.
[2A	.	.	.	.	.
=24	=24	=24	=24	=24	=24
2A]	1B	1E	0r	0e	0r
2G	.	.	.	.	.
2E	1c	1C	.	.	.
[2G	.	.	.	.	.
=25	=25	=25	=25	=25	=25
2G]	1A	1D	1r	0d	1dd
2F#	.	.	.	.	.
1G	2B	[1G	1g	.	2b
.	2d	.	.	.	2b
=26	=26	=26	=26	=26	=26
0C	2.c	1G]	2e	0g	1cc
.	.	.	2c	.	.
.	8B	.	.	.	.
.	8A	.	.	.	.
.	[1G	2r	1e	.	1cc
.	.	[2c	.	.	.
=27	=27	=27	=27	=27	=27
0GG	0G]	2c]	1d	0g	1.dd
.	.	2B	.	.	.
.	.	2G	[1d	.	.
.	.	2B-	.	.	2g
=28	=28	=28	=28	=28	=28
2r	1D	2A	2d]	0f#	1a
2D	.	2.d	2d	.	.
2D	1r	.	2A	.	2.dd
.	.	4c	.	.	.
2D	.	2A	2d	.	.
.	.	.	.	.	4cc
=29	=29	=29	=29	=29	=29
4G	0r	1B	2d	0g	4b
4F	.	.	.	.	4a
4E	.	.	1e	.	4g
4D	.	.	.	.	4f
2C	.	2c	.	.	4e
.	.	.	.	.	4f
2BB	.	2d	[2d	.	[2g
=30	=30	=30	=30	=30	=30
2C	2r	2e	2d]	0g	2g]
2C	2G	2c	2.c	.	2e
1GG	2G	1d	.	.	2d
.	.	.	8B	.	.
.	.	.	8A	.	.
.	2G	.	2B	.	[2g
=31	=31	=31	=31	=31	=31
0r	4c	0c	1e	0r	2g]
.	4B	.	.	.	.
.	4A	.	.	.	1a
.	4G	.	.	.	.
.	2F	.	2f	.	.
.	2E	.	[2g	.	2g
=32	=32	=32	=32	=32	=32
0r	2F	1c	4g]	0r	2.a
.	.	.	4f	.	.
.	2F	.	2.f	.	.
.	.	.	.	.	4f
.	1C	1c	.	.	1g
.	.	.	8e	.	.
.	.	.	8d	.	.
.	.	.	2e	.	.
=33	=33	=33	=33	=33	=33
0r	2r	0F	1c	1f	1a
.	2c	.	.	.	.
.	4F	.	2r	1a	1cc
.	4G	.	.	.	.
.	4A	.	2f	.	.
.	4B	.	.	.	.
=34	=34	=34	=34	=34	=34
0r	2c	0r	2e	1g	2cc
.	2e	.	2g	.	2b
.	1d	.	1f#	1a	1dd
=35	=35	=35	=35	=35	=35
0r	1G	2r	2.g	1b	1dd
.	.	2G	.	.	.
.	.	.	4f	.	.
.	1r	4C	1e	1cc	2r
.	.	4D	.	.	.
.	.	4E	.	.	[2g
.	.	4F	.	.	.
=36	=36	=36	=36	=36	=36
0r	0r	4G	1.d	1b	4g]
.	.	4A	.	.	4f
.	.	4B	.	.	4d
.	.	4c	.	.	4e
.	.	2d	.	1a	2f
.	.	2A	2c#	.	2e
=37	=37	=37	=37	=37	=37
0r	0r	2B	2d	1g	2d
.	.	1c	1g	.	1e
.	.	.	.	1a	.
.	.	2d	2f	.	[2d
=38	=38	=38	=38	=38	=38
0r	1r	1A	1e	1a	2d]
.	.	.	.	.	2c#
.	2r	1D	1f#	1a	2d
.	2d	.	.	.	2dd
=39	=39	=39	=39	=39	=39
0r	2e	1r	1r	1g	2b
.	2c	.	.	.	2cc
.	1d	2r	2r	1f	1a
.	.	2D	2d	.	.
=40	=40	=40	=40	=40	=40
0r	1G	2E	2B	1e	1g
.	.	2C	2c	.	.
.	2r	1D	1A	1f#	2r
.	2D	.	.	.	2dd
=41	=41	=41	=41	=41	=41
0r	2E	1G	1e	1g	2b
.	2C	.	.	.	2cc
.	1D	2r	1d	1f#	2.a
.	.	2d	.	.	.
.	.	.	.	.	4b
=42	=42	=42	=42	=42	=42
0r	1C	2e	2.G	1g	1cc
.	.	2c	.	.	.
.	.	.	4A	.	.
.	1G	2d	1B	1g	1b
.	.	2d	.	.	.
*-	*-	*-	*-	*-	*-
!!!CDT: 1525/^1526/-1594/2/2
!!!OCY: Italia
!!!AGN: Mass (Tenor)
!!!AST: renaissance, vocal
!!!ASW: Hymn
!!!PWK: Masses, Book 11
!!!RNB: Cadence finals: A,C
!!!YOR: Le Opere Complete, v. 28, p. 114
!!!YOO: Rome, Italy: Fratelli Scalera
!!!END: 1992//
!!!EED: John Miller
!!!YEC: Copyright 2000, John Miller
!!!YEN: United States of America
!!!YEM: Rights to all derivative electronic formats reserved.
!!!YEM: Refer to licensing agreement for further details.
!!!YEM: This file must be accompanied by the licensing agreement.
!!!YEM: A copy of the licensing agreement may be found at http://www.music-cog.ohio-state.edu/HumdrumDatabases/Palestrina/license.txt
!!!EMD: converted to Humdrum by Bret Aarden
